public/icons/tokens/ageur.svg

<svg width="258" height="258" viewBox="0 0 258 258" fill="none" xmlns="http://www.w3.org/2000/svg"><path d="M129 257c70.692 0 128-57.308 128-128C257 58.308 199.692 1 129 1 58.308 1 1 58.307 1 129c0 70.692 57.307 128 128 128Z" fill="url(#a)" stroke="#000" stroke-width=".5"/><path d="M42.6 106.049 129 20.2l86.4 85.849-42.396 42.125-43.173-42.898-.776-.771-.778.771-43.2 42.924L42.6 106.049Z" fill="#FFF6F0" stroke="#000"/><path d="M61.697 161.64h33.945v9.677H71.834v12.288h22.887v9.676H71.834v12.442h24.73v9.677H61.697v-53.76Zm83.582 0v35.174c0 6.144-1.639 10.957-4.916 14.439-3.225 3.481-8.038 5.222-14.438 5.222s-11.238-1.741-14.515-5.222c-3.226-3.482-4.839-8.295-4.839-14.439V161.64h10.138v35.174c0 3.175.742 5.658 2.227 7.45 1.485 1.792 3.815 2.688 6.989 2.688s5.504-.896 6.989-2.688c1.485-1.792 2.227-4.275 2.227-7.45V161.64h10.138Zm45.872 53.76h-10.137v-16.128c0-1.229-.333-2.227-.999-2.995-.614-.768-1.664-1.152-3.148-1.152h-11.674V215.4h-10.138v-53.76h20.583c2.765 0 5.197.384 7.296 1.152 2.099.768 3.84 1.843 5.222 3.225a12.827 12.827 0 0 1 3.226 4.685c.768 1.792 1.152 3.712 1.152 5.76v1.843c0 2.202-.589 4.276-1.767 6.221-1.177 1.895-2.995 3.354-5.452 4.378v1.382c1.792.205 3.2.896 4.224 2.074 1.075 1.177 1.612 2.662 1.612 4.454V215.4Zm-25.958-29.952h9.677c2.457 0 4.326-.563 5.606-1.69 1.28-1.177 1.92-2.816 1.92-4.915v-.922c0-1.792-.64-3.328-1.92-4.608-1.28-1.331-3.149-1.996-5.606-1.996h-9.677v14.131Z" fill="#2A363A"/><defs><linearGradient id="a" x1="129" y1="1" x2="129" y2="257" gradientUnits="userSpaceOnUse"><stop stop-color="#99B998"/><stop offset="1" stop-color="#FDCEAA"/></linearGradient></defs></svg>

<svg width="258" height="258" viewBox="0 0 258 258" fill="none" xmlns="http://www.w3.org/2000/svg">
<path d="M129 257C199.692 257 257 199.692 257 129C257 58.3075 199.692 1 129 1C58.3075 1 1 58.3075 1 129C1 199.692 58.3075 257 129 257Z" fill="url(#paint0_linear_1819_1892)" stroke="black" stroke-width="0.5"/>
<path d="M42.6001 106.049L129 20.2L215.4 106.049L173.004 148.174L129.831 105.276L129.055 104.505L128.277 105.276L85.0772 148.2L42.6001 106.049Z" fill="#FFF6F0" stroke="black"/>
<path d="M61.6968 161.64H95.6424V171.317H71.8344V183.605H94.7208V193.281H71.8344V205.723H96.564V215.4H61.6968V161.64ZM145.279 161.64V196.814C145.279 202.958 143.64 207.771 140.363 211.253C137.138 214.734 132.325 216.475 125.925 216.475C119.525 216.475 114.687 214.734 111.41 211.253C108.184 207.771 106.571 202.958 106.571 196.814V161.64H116.709V196.814C116.709 199.989 117.451 202.472 118.936 204.264C120.421 206.056 122.751 206.952 125.925 206.952C129.099 206.952 131.429 206.056 132.914 204.264C134.399 202.472 135.141 199.989 135.141 196.814V161.64H145.279ZM191.151 215.4H181.014V199.272C181.014 198.043 180.681 197.045 180.015 196.277C179.401 195.509 178.351 195.125 176.867 195.125H165.193V215.4H155.055V161.64H175.638C178.403 161.64 180.835 162.024 182.934 162.792C185.033 163.56 186.774 164.635 188.156 166.017C189.59 167.349 190.665 168.91 191.382 170.702C192.15 172.494 192.534 174.414 192.534 176.462V178.305C192.534 180.507 191.945 182.581 190.767 184.526C189.59 186.421 187.772 187.88 185.315 188.904V190.286C187.107 190.491 188.515 191.182 189.539 192.36C190.614 193.537 191.151 195.022 191.151 196.814V215.4ZM165.193 185.448H174.87C177.327 185.448 179.196 184.885 180.476 183.758C181.756 182.581 182.396 180.942 182.396 178.843V177.921C182.396 176.129 181.756 174.593 180.476 173.313C179.196 171.982 177.327 171.317 174.87 171.317H165.193V185.448Z" fill="#2A363A"/>
<defs>
<linearGradient id="paint0_linear_1819_1892" x1="129" y1="1" x2="129" y2="257" gradientUnits="userSpaceOnUse">
<stop stop-color="#99B998"/>
<stop offset="1" stop-color="#FDCEAA"/>
</linearGradient>
</defs>
</svg>
